assets/gi/gi-abstract-106.svg

<svg xmlns="http://www.w3.org/2000/svg" width="100%" height="100%" viewBox="-35.84 -35.84 583.68 583.68"><path d="m21,21v140.5594h470v-140.5594h-30.8437v102.0781h-117.5v-102.0781h-27.9062v102.0781h-117.5v-102.0781h-27.9062v102.0781h-117.5v-102.0781h-30.8437zm91.5031,0c-17.7715,0-32.3125,14.3942-32.3125,32.1657s14.541,32.1656 32.3125,32.1656 32.1657-14.3941 32.1657-32.1656-14.3942-32.1657-32.1657-32.1657zm143.4969,0c-17.7715,0-32.1657,14.3942-32.1657,32.1657s14.3942,32.1656 32.1657,32.1656 32.1656-14.3941 32.1656-32.1656-14.3941-32.1657-32.1656-32.1657zm143.4968,0c-17.7715,0-32.1656,14.3942-32.1656,32.1657s14.3941,32.1656 32.1656,32.1656 32.1657-14.3941 32.1657-32.1656-14.3941-32.1657-32.1657-32.1657zm-364.3969,164.6469v140.5593h204.3032c8.6241-21.7615 13.2188-45.4898 13.2188-70.3531 0-24.7967-4.4924-48.4928-13.0719-70.2063h-204.45zm237.6438,0c-8.64,21.7135-13.3656,45.4096-13.3656,70.2063 0,24.8633 4.8286,48.5916 13.5125,70.3531h204.0094v-140.5593h-204.1563zm-85.6282,23.9406c25.594,0 46.2656,20.6716 46.2656,46.2657s-20.6717,46.2656-46.2656,46.2656c-14.4712,0-27.4665-6.6671-35.9843-17.0375h-85.1876v-58.3094h85.0407c8.5158-10.4628 21.5853-17.1844 36.1312-17.1844zm137.7688,0c14.5459,0 27.6154,6.7215 36.1313,17.1844h85.0406v58.3094h-85.1875c-8.5179,10.3704-21.5131,17.0375-35.9844,17.0375-25.594,0-46.2656-20.6716-46.2656-46.2656s20.6717-46.2657 46.2656-46.2657zm-303.8844,141v140.4125h30.8437v-101.9313h117.5v101.9313h27.9062v-101.9313h117.5v101.9313h27.9062v-101.9313h117.5v101.9313h30.8437v-140.4125h-470zm91.5031,76.0812c-17.7715,0-32.3125,14.3941-32.3125,32.1656s14.541,32.1656 32.3125,32.1656 32.1657-14.3941 32.1657-32.1656-14.3942-32.1656-32.1657-32.1656zm143.4969,0c-17.7715,0-32.1657,14.3941-32.1657,32.1656s14.3942,32.1656 32.1657,32.1656 32.1656-14.3941 32.1656-32.1656-14.3941-32.1656-32.1656-32.1656zm143.4968,0c-17.7715,0-32.1656,14.3941-32.1656,32.1656s14.3941,32.1656 32.1656,32.1656 32.1657-14.3941 32.1657-32.1656-14.3941-32.1656-32.1657-32.1656z"/></svg>

<svg xmlns="http://www.w3.org/2000/svg" width="100%" height="100%" viewBox="-35.84 -35.84 583.68 583.68"><path d="M21 21v140.56h470V21h-30.844v102.078h-117.5V21H314.75v102.078h-117.5V21h-27.906v102.078h-117.5V21H21zm91.503 0c-17.771 0-32.312 14.394-32.312 32.166S94.73 85.33 112.503 85.33s32.166-14.394 32.166-32.165S130.275 21 112.503 21zM256 21c-17.771 0-32.166 14.394-32.166 32.166S238.228 85.33 256 85.33s32.166-14.394 32.166-32.165S273.77 21 256 21zm143.497 0c-17.772 0-32.166 14.394-32.166 32.166s14.394 32.165 32.166 32.165 32.165-14.394 32.165-32.165S417.269 21 399.498 21zM35.1 185.647v140.56h204.303c8.624-21.762 13.219-45.49 13.219-70.354 0-24.797-4.493-48.493-13.072-70.206H35.1zm237.644 0c-8.64 21.713-13.366 45.41-13.366 70.206a189.39 189.39 0 0013.513 70.353H476.9V185.647H272.744zm-85.629 23.94c25.594 0 46.266 20.672 46.266 46.266s-20.672 46.266-46.265 46.266c-14.472 0-27.467-6.667-35.985-17.038H65.944v-58.31h85.04c8.516-10.462 21.586-17.184 36.132-17.184zm137.77 0c14.545 0 27.615 6.722 36.13 17.185h85.041v58.31H360.87c-8.518 10.37-21.513 17.037-35.985 17.037-25.594 0-46.265-20.672-46.265-46.266s20.671-46.265 46.265-46.265zM21 350.587V491h30.844V389.069h117.5V491h27.906V389.069h117.5V491h27.906V389.069h117.5V491H491V350.588H21zm91.503 76.082c-17.772 0-32.313 14.394-32.313 32.165S94.731 491 112.503 491s32.166-14.394 32.166-32.166-14.395-32.165-32.166-32.165zm143.497 0c-17.772 0-32.166 14.394-32.166 32.165S238.228 491 256 491s32.165-14.394 32.165-32.166S273.771 426.67 256 426.67zm143.497 0c-17.772 0-32.166 14.394-32.166 32.165S381.725 491 399.497 491s32.165-14.394 32.165-32.166-14.394-32.165-32.165-32.165z"/></svg>
